assets/images/afrikons/loop-outline.svg

<svg viewBox="0 0 51.73 35.86" xmlns="http://www.w3.org/2000/svg"><path d="m46.06 3v14.52l-1.93-3.35-1.74 1 3.61 6.29a1.19 1.19 0 0 0 1 .6 1.19 1.19 0 0 0 1-.6l3.63-6.29-1.73-1-1.94 3.35v-14.52a3 3 0 0 0 -3-3h-44.09v2h44.18a1 1 0 0 1 1.01 1z"/><path d="m5.67 32.85v-14.51l1.94 3.35 1.73-1-3.63-6.29a1.21 1.21 0 0 0 -1-.6 1.21 1.21 0 0 0 -1 .6l-3.71 6.29 1.73 1 1.94-3.35v14.51a3 3 0 0 0 3 3h44.2v-2h-44.19a1 1 0 0 1 -1.01-1z"/></svg>

<svg xmlns="http://www.w3.org/2000/svg" viewBox="0 0 51.73 35.86"><title>loop-outline</title><g id="Layer_2" data-name="Layer 2"><g id="Layer_1-2" data-name="Layer 1"><path d="M46.06,3V17.52l-1.93-3.35-1.74,1L46,21.46a1.19,1.19,0,0,0,1,.6h0a1.19,1.19,0,0,0,1-.6l3.63-6.29-1.73-1-1.94,3.35V3a3,3,0,0,0-3-3H.87V2H45.05A1,1,0,0,1,46.06,3Z"/><path d="M5.67,32.85V18.34l1.94,3.35,1.73-1L5.71,14.4a1.21,1.21,0,0,0-1-.6h0a1.21,1.21,0,0,0-1,.6L0,20.69l1.73,1,1.94-3.35V32.85a3,3,0,0,0,3,3H50.87v-2H6.68A1,1,0,0,1,5.67,32.85Z"/></g></g></svg>
